X: 1
T: Cailn An T Mhir
M: 12/8
L: 1/8
R: slide
K: Dmix
|:AG|F2D G2E A2D GED|DED DGE FED EDE|
~F3 ~G3 AGA cde|dcA GEA DED D:|
|:zB|ABc AGF ~G3 GFG|A2B cAG AB^c d2e|
fed ^cAG FAF GED|dcA GEA DED D:|
